public/tag.svg

<svg fill="none" height="24" viewBox="0 0 24 24" width="24" xmlns="http://www.w3.org/2000/svg"><g stroke="#ffffe3" stroke-linecap="round" stroke-width="1.5"><path d="m4.17038 15.2998 4.53 4.53c1.86002 1.86 4.88002 1.86 6.75002 0l4.39-4.39c1.86-1.86 1.86-4.88 0-6.75l-4.54-4.52c-.95-.95-2.26-1.46-3.6-1.39l-5.00002.24c-2 .09-3.59 1.68-3.69 3.67l-.24 5c-.06 1.35.45 2.66 1.4 3.61z" stroke-linejoin="round"/><path d="m9.5 12c1.3807 0 2.5-1.1193 2.5-2.5 0-1.38071-1.1193-2.5-2.5-2.5-1.38071 0-2.5 1.11929-2.5 2.5 0 1.3807 1.11929 2.5 2.5 2.5z"/></g></svg>

<svg width="24" height="24" viewBox="0 0 24 24" fill="none" xmlns="http://www.w3.org/2000/svg">
<path d="M4.17038 15.2998L8.70038 19.8298C10.5604 21.6898 13.5804 21.6898 15.4504 19.8298L19.8404 15.4398C21.7004 13.5798 21.7004 10.5598 19.8404 8.6898L15.3004 4.1698C14.3504 3.2198 13.0404 2.7098 11.7004 2.7798L6.70038 3.0198C4.70038 3.1098 3.11038 4.6998 3.01038 6.6898L2.77038 11.6898C2.71038 13.0398 3.22038 14.3498 4.17038 15.2998Z" stroke="#FFFFE3" stroke-width="1.5" stroke-linecap="round" stroke-linejoin="round"/>
<path d="M9.5 12C10.8807 12 12 10.8807 12 9.5C12 8.11929 10.8807 7 9.5 7C8.11929 7 7 8.11929 7 9.5C7 10.8807 8.11929 12 9.5 12Z" stroke="#FFFFE3" stroke-width="1.5" stroke-linecap="round"/>
</svg>
